X: 19677
T: Jennifer MacDonald's
R: waltz
M: 3/4
K: Amajor
A3GA2|B3cB2|A2a2g2|f/g/aa4|fd3f2|
c2eaa2|gee4|d2cBB2|A3GA2|B3cB2|
A2a2g2|f/g/aa4|fd3f2|c2eaa2|GB3G2|A6:|
|:A,3B,C2|C2AGG2|F6|F2EDD2|c6|c2BAA2|eAdAcA|B2AGG2|
[1 A,3B,C2|C2AGG2|F6|F2EDD2|c3BA2|GE3G2|A6|A6:|
[2 A3GA2|B3cB2|A2a2g2|f/g/aa4|fd3f2|c2eaa2|GB3G2|A6||
|:e6|e2gaa2|d6|d2agg2|
[1 c6|c2BAA2|eAdAcA|B2AGG2|e6|e2gaa2|
d6|d2agg2|c3BA2|GE3G2|A6|A6:|
[2 cedAcA|cedAcA|eAdAcA|B2AGG2|A3GA2|B3cB2|
A2a2g2|f/g/aa4|fd3f2|c2eaa2|GB3G2|A6||

